X:1
T:Title
%%score 1 { 2 | 3 }
L:1/8
Q:1/4=90
M:2/4
K:Eb
V:1 treble nm="Grand Piano, Soprano"
V:2 bass nm="Choir Pad, Bass"
V:3 bass 
V:1
 E[EG] [EB][EB]- | [EB]/[Ec]/[EB] [EG]2 | [EG][EA]- [EA]/[EG]/[EA] | [EB] [Ec]3 | %4
w: By~J.~B.~Youngblood * * *||||
 [Ac][Ac] [GB][GB]- | [GB]/[Ac]/[GB] [EG]2 | [EG][EG] [CF][CF] | [EG] [DF]3 | E[EG] [EB][EB]- | %9
w: |||||
 [EB]/[Ec]/[EB] [EG]2 | [EG][EA]- [EA]/[EA]/[EA] | [EB] [Ec]3 | [Gd][Ae]- [Ae]/[Gd]/[Ae] | %13
w: ||||
 [Ac][GB] [Ge]2 | E[EG] [FA][EG] | [DF] E3 | [EGB]/[EGB]/[Ge]- [Ge]/[Ge]/[Ae]- | [Ae]/[Ae]/ [Ge]3 | %18
w: |||||
 [GB][Ac]- [Ac]/[Ae]/[Ae]- | [Ae]/[Ac]/ [GB]3 | [GB][Ac] [GB][Ae] | [Ac][GB] [Ge]2 | %22
w: ||||
 E/E/[EG] [EB][DF] | [DF] E3- | E4 |] %25
w: |||
V:2
 G,B, G,G,- | G,/A,/G, B,2 | B,[K:treble]C- C/C/C | G, A,3 | EE EE- | E/E/E[K:bass] B,2 | %6
 B,B, =A,A, | =A, B,3 | G,B, G,G,- | G,/A,/G, B,2 | B,[K:treble]C- C/C/C | C E3 | B,C- C/B,/C | %13
 EE[K:bass] B,2 | G,B, B,B, | B, G,3 | E/E/B,- B,/B,/[K:treble]C- | C/C/ B,3 | EE- E/C/C- | %19
 C/E/ E3 | EE EC | EE[K:bass] B,2 | G,/A,/B, G,A, | A, G,3- | G,4 |] %25
V:3
 E,E, E,E,- | E,/E,/E, E,2 | E,A,,- A,,/A,,/A,, | A,, [A,,E,]3 | E,E, E,E,- | E,/E,/E, E,2 | %6
 E,F, F,F, | F, B,,3 | E,E, E,E,- | E,/E,/E, E,2 | D,A,,- A,,/A,,/A,, | A,, [A,,E,]3 | %12
 E,A,- A,/A,/A, | A,E, E,2 | E,B,, B,,B,, | B,, E,3 | [E,G,]/[E,G,]/E,- E,/E,/E,- | E,/E,/ E,3 | %18
 E,A,- A,/A,/A,- | A,/A,/ E,3 | E,E, E,E, | E,E, E,2 | E,/E,/B,, B,,B,, | B,, E,3- | E,4 |] %25

